X:1
T:Title
%%score ( 1 2 ) { 3 | 4 }
L:1/8
Q:1/4=100
M:4/4
K:Ab
V:1 treble nm="Grand Piano, Soprano"
V:2 treble 
V:3 bass nm="Choir Pad, Bass"
V:4 bass 
V:1
 [CE]>[CE] [CA]>[CA] [DB]>[DB] [Ec]2 | [Ed]2 [Ae]4 [Ec]2 | [CE]>[CE] [EA]>[EA] [EA]>[EA] [DB]2 | %3
w: By~Frank~Grammer * * * * * *|||
 [DG]2 [CA]6 | [CE]>[CE] [CA]>[CA] [DB]>[DB] [Ec]2 | [Ed]2 [Ae]4 [Ec]2 | %6
w: |||
 [CE]>[CE] [EA]>[EA] [EA]>[EA] [DB]2 | [DG]2 [CA]6 | z2 e4 c2- | c2 z2 z4 | %10
w: ||||
 [CE]>[CE] [EA]>[EA] [EB]>[EB] [Ec]2 | [Ed]2 [Ec]4 [EB]2 | [Ec]>[Fd] [Ec]>[DB] [CA]>[Ec] [Ae]2 | %13
w: |||
 [EA]>[EA] [FB]>[FA] [EG]>[DF] [CE]2 | [CE]>[CE] [EA]>[EA] [FB]>[FB] [Ec]2 | [EA]2 [EB]4 [EA]2- | %16
w: |||
 [EA]6 z2 |] %17
w: |
V:2
 x8 | x8 | x8 | x8 | x8 | x8 | x8 | x8 | [CA]>[Ec] A2 A2 E2 | E2 [FB]>[FA] [EG]>[DF] [CE]2 | x8 | %11
 x8 | x8 | x8 | x8 | x8 | x8 |] %17
V:3
 A,>A, E,>E, E,>E, A,2 | B,2 C4 A,2 | A,>A, C>C A,>A, G,2 | B,2 A,6 | A,>A, E,>E, E,>E, A,2 | %5
 B,2 C4 A,2 | A,>A, C>C A,>A, G,2 | B,2 A,6 | A,>A, C2 C2 A,2 | A,2 A,>A, A,>A, A,2 | %10
 A,>A, A,>A, G,>G, A,2 | B,2 A,4 G,2 | A,>A, A,>A, A,>A, C2 | A,>A, A,>A, A,>A, A,2 | %14
 A,>A, A,>A, A,>A,[K:treble] A,2 | C2 D4 C2- | C6 z2 |] %17
V:4
 A,,>A,, A,,>A,, A,,>A,, A,,2 | A,,2 A,,4 A,,2 | A,,>A,, A,,>A,, C,>C, E,2 | E,2 A,,6 | %4
 A,,>A,, A,,>A,, A,,>A,, A,,2 | A,,2 A,,4 A,,2 | A,,>A,, A,,>A,, C,>C, E,2 | E,2 A,,6 | %8
 z2 A,2 A,2 A,,2 | A,,2 D,>D, D,>D, A,,2 | A,,>A,, C,>C, E,>E, z2 | G,2 z2 z2 E,2 | z4 z2 A,2 | %13
 C,>C, D,>D, D,>F, z2 | A,,>A,, C,>C, D,>D, E,2 | E,2 E,4 A,,2- | A,,6 z2 |] %17

